mobile/24/svg/microphone-24.svg

<svg width="24" height="24" viewBox="0 0 24 24" fill="none" xmlns="http://www.w3.org/2000/svg">
<path fill-rule="evenodd" clip-rule="evenodd" d="M8.25 5.75C8.25 3.67875 9.92875 2 12 2C14.0712 2 15.75 3.67875 15.75 5.75V10.5C15.75 12.5712 14.0712 14.25 12 14.25C9.92875 14.25 8.25 12.5712 8.25 10.5V5.75ZM12 3.75C10.8952 3.75 10 4.64525 10 5.75V10.5C10 11.6048 10.8952 12.5 12 12.5C13.1048 12.5 14 11.6048 14 10.5V5.75C14 4.64525 13.1048 3.75 12 3.75Z" fill="black"/>
<path d="M11.125 17.6858C7.5334 17.2538 4.75 14.1961 4.75 10.488H6.5C6.5 13.5258 8.96225 15.988 12 15.988C15.0378 15.988 17.5 13.5258 17.5 10.488H19.25C19.25 14.1961 16.4666 17.2538 12.875 17.6858V20.25H17V22H7V20.25H11.125V17.6858Z" fill="black"/>
</svg>

<svg width="24" height="24" fill="none" xmlns="http://www.w3.org/2000/svg"><path fill-rule="evenodd" clip-rule="evenodd" d="M8.25 5.75a3.75 3.75 0 1 1 7.5 0v4.75a3.75 3.75 0 1 1-7.5 0V5.75zm3.75-2a2 2 0 0 0-2 2v4.75a2 2 0 1 0 4 0V5.75a2 2 0 0 0-2-2z" fill="#000"/><path d="M11.125 17.686a7.251 7.251 0 0 1-6.375-7.198H6.5a5.5 5.5 0 1 0 11 0h1.75a7.251 7.251 0 0 1-6.375 7.198v2.564H17V22H7v-1.75h4.125v-2.564z" fill="#000"/></svg>
